icons/svg/diamond.svg

<svg xmlns="http://www.w3.org/2000/svg" version="1.1" baseProfile="full" width="24" height="24" viewBox="0 0 24.00 24.00" xml:space="preserve"><path fill="#000" fill-opacity="1" stroke-linejoin="round" d="M16 9h3l-5 7m-4-7h4l-2 8M5 9h3l2 7m5-12h2l2 3h-3m-5-3h2l1 3h-4M7 4h2L8 7H5m1-5L2 8l10 14L22 8l-4-6H6z"/></svg>

﻿<?xml version="1.0" encoding="utf-8"?>
<!DOCTYPE svg PUBLIC "-//W3C//DTD SVG 1.1//EN" "http://www.w3.org/Graphics/SVG/1.1/DTD/svg11.dtd">
<svg xmlns="http://www.w3.org/2000/svg" xmlns:xlink="http://www.w3.org/1999/xlink" version="1.1" baseProfile="full" width="24" height="24" viewBox="0 0 24.00 24.00" enable-background="new 0 0 24.00 24.00" xml:space="preserve">
	<path fill="#000000" fill-opacity="1" stroke-linejoin="round" d="M 16,9L 19,9L 14,16M 10,9L 14,9L 12,17M 5,9L 8,9L 10,16M 15,4L 17,4L 19,7L 16,7M 11,4L 13,4L 14,7L 10,7M 7,4L 9,4L 8,7L 5,7M 6,2L 2,8L 12,22L 22,8L 18,2L 6,2 Z "/>
</svg>
